apps/site/public/icons/companies/remix.svg

<svg width="48" height="48" viewBox="0 0 48 48" fill="none" xmlns="http://www.w3.org/2000/svg">
<g clip-path="url(#clip0_6105_27533)">
<path fill-rule="evenodd" clip-rule="evenodd" d="M41.3308 35.9319C41.7242 41.0156 41.7242 43.3987 41.7242 46H30.0334C30.0334 45.4334 30.0435 44.9151 30.0536 44.3895C30.0853 42.7556 30.1183 41.0518 29.8551 37.6111C29.5074 32.5737 27.3514 31.4543 23.3871 31.4543H19.8748H5V22.2892H23.9435C28.951 22.2892 31.4548 20.7566 31.4548 16.6987C31.4548 13.1306 28.951 10.9684 23.9435 10.9684H5V2H26.03C37.3665 2 43 7.38713 43 15.9926C43 22.4291 39.0357 26.6269 33.6804 27.3265C38.2011 28.236 40.844 30.8247 41.3308 35.9319Z" fill="#161D2B"/>
<path d="M5 46V39.1677H17.3613C19.426 39.1677 19.8744 40.7085 19.8744 41.6274V46H5Z" fill="#161D2B"/>
</g>
<defs>
<clipPath id="clip0_6105_27533">
<rect width="38" height="44" fill="white" transform="translate(5 2)"/>
</clipPath>
</defs>
</svg>

<svg xmlns="http://www.w3.org/2000/svg" width="48" height="48" fill="none" viewBox="0 0 48 48"><g fill="#161d2b" clip-path="url(#a)"><path fill-rule="evenodd" d="M41.33 35.932c.394 5.084.394 7.467.394 10.068h-11.69c0-.567.01-1.085.02-1.61.031-1.634.064-3.338-.199-6.779-.348-5.037-2.504-6.157-6.468-6.157H5V22.29h18.944c5.007 0 7.51-1.532 7.51-5.59 0-3.568-2.503-5.73-7.51-5.73H5V2h21.03C37.367 2 43 7.387 43 15.993c0 6.436-3.964 10.634-9.32 11.333 4.521.91 7.164 3.499 7.65 8.606" clip-rule="evenodd"/><path d="M5 46v-6.832h12.361c2.065 0 2.513 1.54 2.513 2.46V46z"/></g><defs><clipPath id="a"><path fill="#fff" d="M5 2h38v44H5z"/></clipPath></defs></svg>
